!!!SOCIAL_FUNCTION:	songs of the kicking-ball race
!!!PDT:	1929
!!!OTL: No_149_Song_for_Success_in_a_Race.krn
!!!REG: Southwest
!!!LANG: Non-Tone
!!!LING_GROUP: Uto-Aztecan
**kern
*staff1
*clefF4
*k[b-e-a-d-]
*M2/4
8F\L
8F\J
=1
4c\
4c\
=2
8c\L
8B-\J
4A-\
=3
4B-\
4B-;\
=4||
*M3/4
8.B-\L
16A-\Jk
8A-\
8r
4B-\
=5||
*M2/4
4c\
8c\L
8B-\J
=6
8A-\L
8F\J
4E-\
=7
4F\
4F;\
=8
8F\L
8E-\J
8E-\
8r
=9
4A-\
4B-\
=10
4B-\
8.A-\L
16E-\Jk
=11
4E-\
8.F;\L
16F\Jk
=12
4F\
8E-\L
8E-\J
=13
4r
8F\L
8E-\J
=14
4A-\
4A-\
=15
4E-\
8C/
8r
=16||
*M3/4
4F\
8F\L
8F\J
4F\
=17
4F\
2F\
==
*-
